X:117
%%etbk:tnset id:41,pos:3,rep:3x,ant:
%%etbk:skill ?
%%etbk:pldat 2013-11-19T16:22,2013-11-07T16:13
T: Killavil Fancy, The
Z: Piano Box Version by Martin Fleischmann
H: Created 2013-02-19 /  Last Modified 2013-02-19
M: 4/4
L: 1/8
R: reel
K: Gmaj
|: "G"!1!D!2!G!4!BG "D"!3!A2!4!BA | "C"!2!G!1!E !3!(3E!2!E!1!E !5!c!1!E!2!G!1!E | "G"!1!D!2!G!4!B!2!G "D"!3!A2!4!BA | "C"!2!G!1!E !3!(3E!2!E!1!E !1!EFG!4!A |
"G"!3!B3!5!d "D"!3!A3!4!B | "C"!2!G!1!E !3!(3E!2!E!1!E !5!c!1!E!2!G!1!E | "G"!1!D!2!G!4!B!2!G "D"!3!A2!4!BA | "C"!2!G!1!EE!2!D !1!E4 :|
|: "G"!1!GA!3!B!4!d !3!ef!5!g!3!e | !2!d!1!B !3!(3B!2!B!1!B !4!d!2!B!1!A!2!B | !1!GA!3!B!4!d !3!ef!5!g!3!e | !2!d!1!B!3!A!2!G !1!E!2!G!1!G2 |
!1!GA!3!B!4!d !3!ef!5!g!3!e | !2!d!1!B !3!(3B!2!B!1!B !2!d2!3!ga | !5!b!3!g!4!a!3!g !2!e{g}e!1!d!3!e | !5!g!3!e!2!d!1!B !3!A!2!G!1!E!2!G :|
